icons/themes/default/block.svg

<svg viewBox="0 0 16 16" fill="none" xmlns="http://www.w3.org/2000/svg">
<path fill-rule="evenodd" clip-rule="evenodd" d="M3.34058 1.5C3.06443 1.5 2.84058 1.72386 2.84058 2C2.84058 2.27614 3.06443 2.5 3.34058 2.5H12.6806C12.9567 2.5 13.1806 2.27614 13.1806 2C13.1806 1.72386 12.9567 1.5 12.6806 1.5H3.34058ZM2.3591 5.91856C2.18927 6.08838 2.06055 6.38374 2.06055 6.9V9.12C2.06055 9.63626 2.18927 9.93162 2.3591 10.1014C2.52893 10.2713 2.82429 10.4 3.34055 10.4H12.6805C13.1968 10.4 13.4922 10.2713 13.662 10.1014C13.8318 9.93162 13.9605 9.63626 13.9605 9.12V6.9C13.9605 6.38374 13.8318 6.08838 13.662 5.91856C13.4922 5.74873 13.1968 5.62 12.6805 5.62H3.34055C2.82429 5.62 2.52893 5.74873 2.3591 5.91856ZM1.65199 5.21145C2.0755 4.78794 2.67014 4.62 3.34055 4.62H12.6805C13.351 4.62 13.9456 4.78794 14.3691 5.21145C14.7926 5.63496 14.9605 6.2296 14.9605 6.9V9.12C14.9605 9.79041 14.7926 10.385 14.3691 10.8086C13.9456 11.2321 13.351 11.4 12.6805 11.4H3.34055C2.67014 11.4 2.0755 11.2321 1.65199 10.8086C1.22849 10.385 1.06055 9.79041 1.06055 9.12V6.9C1.06055 6.2296 1.22849 5.63496 1.65199 5.21145ZM2.84058 14.02C2.84058 13.7439 3.06443 13.52 3.34058 13.52H12.6806C12.9567 13.52 13.1806 13.7439 13.1806 14.02C13.1806 14.2961 12.9567 14.52 12.6806 14.52H3.34058C3.06443 14.52 2.84058 14.2961 2.84058 14.02Z" fill="currentColor"/>
</svg>

<svg xmlns="http://www.w3.org/2000/svg" fill="none" viewBox="0 0 16 16">
  <path fill="currentColor" fill-rule="evenodd" d="M3.34 1.5a.5.5 0 1 0 0 1h9.34a.5.5 0 0 0 0-1H3.34Zm-.98 4.419c-.17.17-.3.465-.3.981v2.22c0 .516.13.812.3.981.169.17.464.299.98.299h9.34c.517 0 .812-.129.982-.299.17-.17.298-.465.298-.981V6.9c0-.516-.128-.812-.298-.981-.17-.17-.465-.299-.982-.299H3.34c-.516 0-.811.129-.98.299Zm-.708-.708c.423-.423 1.018-.591 1.689-.591h9.34c.67 0 1.265.168 1.688.591.424.424.591 1.019.591 1.689v2.22c0 .67-.167 1.265-.59 1.689-.424.423-1.019.591-1.69.591H3.34c-.67 0-1.264-.168-1.688-.591-.424-.424-.591-1.019-.591-1.689V6.9c0-.67.167-1.265.591-1.689Zm1.189 8.809a.5.5 0 0 1 .5-.5h9.34a.5.5 0 0 1 0 1H3.34a.5.5 0 0 1-.5-.5Z" clip-rule="evenodd"/>
</svg>
